X:1
T:The Road To Ballymac x2
L:1/8
Q:1/4=180
M:4/4
K:D
|:"G""^The Road To Ballymac x2" DG PG2 BAGA | Bd Pd2"C" e2 de |"G" gd Pd2"C" egde |"G" gedB"D7" ABGE |"G" DG PG2 BAGA |"G" Bd Pd2"C" e2 de |"C/D" gd Pd2 egdB |1"D" cAFA G2 GE :|2"D" cAFA"G" G2 GA |:"G" Bd Pd2"Em" edBd |"C" eg Pg2"D7" a2 ga |"G" bgag"Am" egde |"C" gedB"D7" ABGA |"G" Bd Pd2"Em" edBd |"C" eg Pg2"D7" a2 ga |"G" bgag"C" egdB |1"D7" cAFA"G" G2 GA :|2"D7" cAFA"G" G4 |:S"D""^Pachelbel's Frolics x2" d2 dc defg |"A" a2 ab afed |"Bm" B2 Bc dcdB |"F#m" ABAG FDEF |"G" GFGA B2 Bc |"D" dcde ffef |"G" gfed cdef |1"A7" gece"A" a4 :|2"A" gece"D" d2 de |:"D" fada fadf |"A" egcg egce |"Bm" dfBf dfBf |"F#m" A2 AB =cAFA |"G" GFGA BAB^c |"D" dcde f2 ef |"G" gfed cdef |1,3"A7" gece"A" a4 :|2"A" gece"D" d2 de!D.S.! ||4"A" ge.c.e"^G.P." z4 |"D" !fermata!d8 |]
